static/images/icon/forge.svg

<svg xmlns="http://www.w3.org/2000/svg" xmlns:xlink="http://www.w3.org/1999/xlink" preserveAspectRatio="none" viewBox="0 0 90 46"><defs><path id="a" fill="#1e2d44" d="M85.8 49.1l-4.5-5.5q-1.65-.1-3.55-.55-3.8-.95-4.85-2.65Q68.75 34.25 74 27q5.45-7.65 17.55-10.3l-37.8-1.9H100v-3.7H47.75v14q0 .65-1.9-11.7h-4.1v13l-1.9-12.3h-27.9q12.85 10.8 19.9 14.3 2.45 1.2 6.05 1.65 2.1.25 6.35.35 2.1.1 3.1.35 1.65.4 2.7 1.45 1.75 1.7 2 4 .3 2.4-1.2 4.3-1.2 1.65-4.35 2.6l-2.95.6L39 49.1v6.4h10.25l.3-6.3 8.95-6.3q-2.85 2.4-6.25 7.7-.95 1.5-1.7 3.5 1.7-1.45 4.9-2.3 3.3-.9 7.3-.9 3.9 0 7.2.9 3.25.85 4.95 2.3-.6-1.75-1.7-3.5-3.4-5.2-6.2-7.7l8.9 6.3.3 6.3h9.6v-6.4z"/></defs><use transform="translate(-10.95 -10.3)" xlink:href="#a"/></svg>

<svg xmlns="http://www.w3.org/2000/svg" version="1.1" xmlns:xlink="http://www.w3.org/1999/xlink" preserveAspectRatio="none" x="0px" y="0px" width="90px" height="46px" viewBox="0 0 90 46">
<defs>
	<g id="Layer0_0_MEMBER_0_FILL">
		<path fill="#1e2d44" stroke="none" d="
M 85.8 49.1
L 81.3 43.6
Q 79.65 43.5 77.75 43.05 73.95 42.1 72.9 40.4 68.75 34.25 74 27 79.45 19.35 91.55 16.7
L 53.75 14.8 100 14.8 100 11.1 47.75 11.1 47.75 25.1
Q 47.75 25.75 45.85 13.4
L 41.75 13.4 41.75 26.4 39.85 14.1 11.95 14.1
Q 24.8 24.9 31.85 28.4 34.3 29.6 37.9 30.05 40 30.3 44.25 30.4 46.35 30.5 47.35 30.75 49 31.15 50.05 32.2 51.8 33.9 52.05 36.2 52.35 38.6 50.85 40.5 49.65 42.15 46.5 43.1
L 43.55 43.7 39 49.1 39 55.5 49.25 55.5 49.55 49.2 58.5 42.9
Q 55.65 45.3 52.25 50.6 51.3 52.1 50.55 54.1 52.25 52.65 55.45 51.8 58.75 50.9 62.75 50.9 66.65 50.9 69.95 51.8 73.2 52.65 74.9 54.1 74.3 52.35 73.2 50.6 69.8 45.4 67 42.9
L 75.9 49.2 76.2 55.5 85.8 55.5 85.8 49.1 Z"/>
	</g>
</defs>

<g transform="matrix( 1, 0, 0, 1, -10.95,-10.3) ">
	<use xlink:href="#Layer0_0_MEMBER_0_FILL"/>
</g>
</svg>
